svg/part/deer_line.svg

<?xml version="1.0" encoding="UTF-8"?>
<svg width="24px" height="24px" viewBox="0 0 24 24" version="1.1" xmlns="http://www.w3.org/2000/svg" xmlns:xlink="http://www.w3.org/1999/xlink">
    <title>deer_line</title>
    <g id="Icon" stroke="none" stroke-width="1" fill="none" fill-rule="evenodd">
        <g id="Part" transform="translate(0.000000, -192.000000)" fill-rule="nonzero">
            <g id="deer_line" transform="translate(0.000000, 192.000000)">
                <path d="M24,0 L24,24 L0,24 L0,0 L24,0 Z M12.5935,23.2578 L12.5819,23.2595 L12.5109,23.295 L12.4919,23.2987 L12.4767,23.295 L12.4057,23.2595 C12.3958,23.2564 12.387,23.259 12.3821,23.2649 L12.378,23.2758 L12.3609,23.7031 L12.3659,23.7235 L12.3769,23.7357 L12.4805,23.8097 L12.4953,23.8136 L12.5071,23.8097 L12.6107,23.7357 L12.6233,23.7197 L12.6267,23.7031 L12.6096,23.2758 C12.6076,23.2657 12.601,23.2593 12.5935,23.2578 Z M12.8584,23.1453 L12.8445,23.1473 L12.6598,23.2397 L12.6499,23.2499 L12.6472,23.2611 L12.6651,23.6906 L12.6699,23.7034 L12.6784,23.7105 L12.8793,23.8032 C12.8914,23.8069 12.9022,23.803 12.9078,23.7952 L12.9118,23.7812 L12.8777,23.1665 C12.8753,23.1546 12.8674,23.147 12.8584,23.1453 Z M12.143,23.1473 C12.1332,23.1424 12.1222,23.1453 12.1156,23.1526 L12.1099,23.1665 L12.0758,23.7812 C12.0751,23.7927 12.0828,23.8019 12.0926,23.8046 L12.1083,23.8032 L12.3092,23.7105 L12.3186,23.7024 L12.3225,23.6906 L12.3404,23.2611 L12.3372,23.2485 L12.3278,23.2397 L12.143,23.1473 Z" id="MingCute"></path>
                <path d="M4,3 C4.55228,3 5,3.44772 5,4 C5,4.99565 5.42676,6.06342 6.08603,7.07672 C6.3524,6.48758 6.73485,5.85094 7.29289,5.29289 C7.68342,4.90237 8.31658,4.90237 8.70711,5.29289 C9.09763,5.68342 9.09763,6.31658 8.70711,6.70711 C8.04813,7.36608 7.74202,8.23246 7.56073,8.8938 C7.94013,9.27941 8.31102,9.60748 8.63396,9.86094 C9.63273,9.31215 10.7799,9 12,9 C13.2201,9 14.3673,9.31215 15.366,9.86094 C15.689,9.60748 16.0599,9.27942 16.4393,8.8938 C16.258,8.23246 15.9519,7.36608 15.2929,6.70711 C14.9024,6.31658 14.9024,5.68342 15.2929,5.29289 C15.6834,4.90237 16.3166,4.90237 16.7071,5.29289 C17.2651,5.85094 17.6476,6.48759 17.914,7.07673 C18.5732,6.06342 19,4.99565 19,4 C19,3.44772 19.4477,3 20,3 C20.5523,3 21,3.44772 21,4 C21,5.81435 20.1052,7.52643 19.1125,8.85 C18.4444,9.74085 17.6856,10.5174 17.0027,11.1038 C18.2383,12.3661 19,14.0941 19,16 C19,17.7922 18.3252,19.4291 17.2173,20.6669 C16.849,21.0784 16.2168,21.1135 15.8053,20.7451 C15.3938,20.3768 15.3588,19.7446 15.7271,19.3331 C16.5194,18.4478 17,17.2812 17,16 C17,13.2386 14.7614,11 12,11 C9.23858,11 7,13.2386 7,16 C7,17.2812 7.48059,18.4478 8.27292,19.3331 C8.64125,19.7446 8.60623,20.3768 8.1947,20.7451 C7.78317,21.1135 7.15098,21.0784 6.78265,20.6669 C5.67482,19.4291 5,17.7922 5,16 C5,14.0941 5.7617,12.3661 6.9973,11.1038 C6.31442,10.5174 5.55564,9.74085 4.8875,8.85 C3.89483,7.52643 3,5.81435 3,4 C3,3.44772 3.44772,3 4,3 Z" id="路径" fill="#09244B"></path>
            </g>
        </g>
    </g>
</svg>

<svg xmlns="http://www.w3.org/2000/svg" width="24" height="24"><g fill="none" fill-rule="nonzero"><path d="M24 0v24H0V0h24ZM12.594 23.258l-.012.002-.071.035-.02.004-.014-.004-.071-.036c-.01-.003-.019 0-.024.006l-.004.01-.017.428.005.02.01.013.104.074.015.004.012-.004.104-.074.012-.016.004-.017-.017-.427c-.002-.01-.009-.017-.016-.018Zm.264-.113-.014.002-.184.093-.01.01-.003.011.018.43.005.012.008.008.201.092c.012.004.023 0 .029-.008l.004-.014-.034-.614c-.003-.012-.01-.02-.02-.022Zm-.715.002a.023.023 0 0 0-.027.006l-.006.014-.034.614c0 .012.007.02.017.024l.015-.002.201-.093.01-.008.003-.011.018-.43-.003-.012-.01-.01-.184-.092Z"/><path fill="#09244B" d="M4 3a1 1 0 0 1 1 1c0 .996.427 2.063 1.086 3.077a6.005 6.005 0 0 1 1.207-1.784 1 1 0 0 1 1.414 1.414c-.659.66-.965 1.525-1.146 2.187.38.385.75.713 1.073.967A6.969 6.969 0 0 1 12 9c1.22 0 2.367.312 3.366.86.323-.253.694-.58 1.073-.966-.181-.662-.487-1.528-1.146-2.187a1 1 0 0 1 1.414-1.414c.558.558.94 1.195 1.207 1.784C18.574 6.063 19 4.996 19 4a1 1 0 1 1 2 0c0 1.814-.895 3.526-1.887 4.85a14.518 14.518 0 0 1-2.11 2.254A6.977 6.977 0 0 1 19 16c0 1.792-.675 3.43-1.783 4.667a1 1 0 1 1-1.49-1.334 5 5 0 1 0-7.454 0 1 1 0 1 1-1.49 1.334A6.978 6.978 0 0 1 5 16c0-1.906.762-3.634 1.997-4.896a14.521 14.521 0 0 1-2.11-2.254C3.896 7.526 3 5.814 3 4a1 1 0 0 1 1-1Z"/></g></svg>
